src/pos-icons/file-multiple.svg

<svg height="24" viewBox="0 0 24 24" width="24" xmlns="http://www.w3.org/2000/svg"><path d="m15 7h5.5l-5.5-5.5zm-7-7h8l6 6v12a2 2 0 0 1 -2 2h-12c-1.11 0-2-.9-2-2v-16a2 2 0 0 1 2-2m-4 4v18h16v2h-16a2 2 0 0 1 -2-2v-18z"/></svg>

<?xml version="1.0" encoding="UTF-8"?><!DOCTYPE svg PUBLIC "-//W3C//DTD SVG 1.1//EN" "http://www.w3.org/Graphics/SVG/1.1/DTD/svg11.dtd"><svg xmlns="http://www.w3.org/2000/svg" xmlns:xlink="http://www.w3.org/1999/xlink" version="1.1" id="mdi-file-multiple" width="24" height="24" viewBox="0 0 24 24"><path d="M15,7H20.5L15,1.5V7M8,0H16L22,6V18A2,2 0 0,1 20,20H8C6.89,20 6,19.1 6,18V2A2,2 0 0,1 8,0M4,4V22H20V24H4A2,2 0 0,1 2,22V4H4Z" /></svg>
